src/assets/mobile/forbes.svg

<svg width="73" height="20" viewBox="0 0 73 20" fill="none" xmlns="http://www.w3.org/2000/svg">
<path d="M41.3826 6.51911C41.3826 4.18511 41.4195 2.01207 41.53 0L35.892 1.167V1.73038L36.4447 1.81087C36.8501 1.85111 37.108 2.01207 37.2554 2.25352C37.4028 2.53521 37.5134 2.93763 37.5871 3.54125C37.6608 4.70825 37.7345 7.36419 37.6976 11.5493C37.6976 15.6942 37.6608 18.3099 37.5871 19.3159C39.6138 19.7988 41.1984 20 42.3776 20C44.5886 20 46.3205 19.3159 47.5734 17.9074C48.8264 16.5392 49.4897 14.6076 49.4897 12.2334C49.4897 10.3421 49.0106 8.77264 48.0525 7.52515C47.0944 6.27767 45.8783 5.67404 44.4412 5.67404C43.4831 5.67404 42.4881 5.95573 41.3826 6.51911ZM41.4932 18.9135C41.4195 17.6258 41.3458 13.7626 41.3458 7.44467C41.6774 7.32394 42.1196 7.24346 42.6724 7.24346C43.5568 7.24346 44.2569 7.72636 44.7728 8.73239C45.2887 9.73843 45.5467 10.9457 45.5467 12.4748C45.5467 14.3662 45.2519 15.8954 44.6623 17.1831C44.0727 18.4306 43.3357 19.0744 42.4144 19.0744C42.1196 18.994 41.8248 18.9537 41.4932 18.9135ZM14.74 0.402414H0V1.20724L0.773852 1.28773C1.36345 1.40845 1.7688 1.6499 2.02675 2.01207C2.2847 2.41449 2.4321 3.05835 2.46895 3.94366C2.76376 8.28974 2.76376 12.3541 2.46895 16.0966C2.39525 16.9819 2.24785 17.6258 2.02675 18.0282C1.7688 18.4306 1.36345 18.672 0.773852 18.7525L0 18.8732V19.6781H9.50732V18.8732L8.51237 18.7928C8.26958 18.7706 8.03342 18.695 7.8181 18.5705C7.60278 18.446 7.41275 18.2752 7.25946 18.0684C7.00151 17.666 6.85411 17.0221 6.81726 16.1368C6.70671 14.5272 6.63301 12.6761 6.63301 10.6237L8.62292 10.664C9.69157 10.7042 10.4286 11.5895 10.7971 13.3602H11.5341V6.8008H10.7971C10.4286 8.53119 9.72842 9.4165 8.62292 9.45674L6.63301 9.49698C6.63301 5.87525 6.70671 3.2998 6.81726 1.73038H9.72842C11.792 1.73038 13.1923 3.17907 14.003 6.07646L14.8874 5.79477L14.74 0.402414ZM13.0081 12.7968C13.0081 14.8893 13.5608 16.6197 14.6295 17.9879C15.6981 19.3561 17.2827 20 19.2726 20C21.2625 20 22.8839 19.3159 24.0631 17.9074C25.2423 16.5392 25.7951 14.8089 25.7951 12.7163C25.7951 10.6237 25.2423 8.89336 24.1736 7.52515C23.105 6.15694 21.5204 5.51308 19.5305 5.51308C17.5406 5.51308 15.9192 6.19718 14.74 7.60563C13.5608 8.97384 13.0081 10.7042 13.0081 12.7968ZM21.2256 8.20926C21.6678 9.37626 21.8521 10.9054 21.8521 12.7565C21.8521 17.0221 21.0414 19.1147 19.4568 19.1147C18.6461 19.1147 18.0197 18.5111 17.5775 17.3038C17.1353 16.0966 16.951 14.5674 16.951 12.7565C16.951 8.53119 17.7617 6.43863 19.3463 6.43863C20.157 6.39839 20.7834 7.00201 21.2256 8.20926ZM52.364 17.9879C53.58 19.3159 55.1277 20 56.9702 20C58.1126 20 59.1075 19.7586 59.9919 19.2354C60.8763 18.7525 61.5765 18.1489 62.0555 17.4245L61.687 16.9416C60.8763 17.6258 59.9551 17.9477 58.8864 17.9477C57.4124 17.9477 56.2701 17.4245 55.4962 16.338C54.6855 15.2515 54.317 13.8833 54.3907 12.1127H62.2766C62.2766 10.1811 61.8344 8.61167 60.9132 7.36418C59.9919 6.15694 58.7022 5.55332 57.0439 5.55332C54.9803 5.55332 53.3958 6.27767 52.2534 7.68612C51.1111 9.09457 50.5583 10.8249 50.5583 12.8773C50.5583 14.9698 51.1479 16.66 52.364 17.9879ZM55.0909 7.88732C55.4962 6.92153 56.0121 6.43863 56.7123 6.43863C57.8178 6.43863 58.3705 7.96781 58.3705 11.0664L54.4644 11.1469C54.5013 9.93964 54.6855 8.85312 55.0909 7.88732ZM72.1893 6.27767C71.1943 5.79477 69.9414 5.51308 68.4306 5.51308C66.8829 5.51308 65.6668 5.95573 64.7456 6.8008C63.8243 7.64587 63.3453 8.69215 63.3453 9.93964C63.3453 11.0262 63.6401 11.8712 64.1928 12.4748C64.7456 13.0785 65.63 13.6016 66.7723 14.0443C67.8041 14.4467 68.5411 14.8491 68.9096 15.2113C69.2781 15.6137 69.4992 16.0563 69.4992 16.66C69.4992 17.2233 69.315 17.7465 68.9096 18.1489C68.5411 18.5915 68.0252 18.7928 67.3619 18.7928C65.7405 18.7928 64.5245 17.505 63.6769 14.9296L63.0505 15.1308L63.1979 19.1549C64.5245 19.7183 65.9985 20 67.6199 20C69.315 20 70.6047 19.5976 71.5628 18.7525C72.5209 17.9477 73 16.7807 73 15.332C73 14.3662 72.7789 13.5614 72.2998 12.9577C71.8208 12.3541 71.0469 11.831 69.9414 11.3481C68.7254 10.8652 67.8778 10.4225 67.4356 10.0201C66.9934 9.61771 66.7723 9.13481 66.7723 8.53119C66.7723 7.92757 66.9197 7.44467 67.2514 7.04225C67.583 6.63984 67.9884 6.47887 68.5043 6.47887C69.9783 6.47887 71.0469 7.64588 71.7102 9.93964L72.3367 9.73843L72.1893 6.27767ZM36.7395 5.91549C36.2236 5.6338 35.6709 5.51308 35.0444 5.51308C34.418 5.51308 33.7915 5.79477 33.0914 6.35815C32.3912 6.92153 31.8753 7.68612 31.47 8.73239L31.5068 5.51308L25.9056 6.72032V7.2837L26.4584 7.32394C27.1585 7.40443 27.5639 8.00805 27.6376 9.09457C27.8587 11.5895 27.8587 14.2455 27.6376 17.0624C27.5639 18.1489 27.1585 18.7123 26.4584 18.833L25.9056 18.9135V19.6781H33.7178V18.9135L32.7229 18.833C32.0227 18.7525 31.6174 18.1489 31.5437 17.0624C31.3226 14.7284 31.2857 12.2334 31.47 9.65795C31.6911 9.25553 32.1701 9.01408 32.9071 8.9336C33.6441 8.85312 34.4917 9.09457 35.3761 9.65795L36.7395 5.91549Z" fill="#090C21"/>
</svg>

<svg xmlns="http://www.w3.org/2000/svg" width="73" height="20" fill="none"><path fill="#090C21" d="M41.383 6.52c0-2.335.036-4.508.147-6.52l-5.638 1.167v.563l.553.08c.405.041.663.202.81.444.148.281.258.684.332 1.287.074 1.167.147 3.823.11 8.008 0 4.145-.036 6.76-.11 7.767 2.027.483 3.611.684 4.79.684 2.212 0 3.944-.684 5.196-2.093 1.253-1.368 1.917-3.3 1.917-5.674q0-2.836-1.437-4.708c-.959-1.247-2.175-1.851-3.612-1.851-.958 0-1.953.282-3.058.845m.11 12.394c-.074-1.288-.147-5.151-.147-11.47.331-.12.774-.2 1.326-.2.885 0 1.585.482 2.1 1.488.517 1.006.775 2.214.775 3.743 0 1.891-.295 3.42-.885 4.708-.59 1.248-1.326 1.891-2.248 1.891-.294-.08-.59-.12-.92-.16M14.74.401H0v.805l.774.08c.59.121.995.363 1.253.725q.387.603.442 1.932c.295 4.346.295 8.41 0 12.153q-.11 1.328-.442 1.931c-.258.403-.664.644-1.253.725l-.774.12v.805h9.507v-.805l-.995-.08a1.7 1.7 0 0 1-.694-.223 1.85 1.85 0 0 1-.559-.502q-.386-.603-.442-1.931c-.11-1.61-.184-3.46-.184-5.513l1.99.04c1.069.04 1.806.925 2.174 2.696h.737V6.8h-.737c-.368 1.731-1.069 2.616-2.174 2.657l-1.99.04c0-3.622.074-6.197.184-7.767h2.911c2.064 0 3.464 1.45 4.275 4.346l.884-.281zm-1.732 12.395c0 2.092.553 3.823 1.622 5.19C15.698 19.358 17.283 20 19.273 20s3.61-.684 4.79-2.093c1.18-1.368 1.732-3.098 1.732-5.19s-.553-3.824-1.621-5.192-2.654-2.012-4.643-2.012c-1.99 0-3.612.684-4.791 2.093-1.18 1.368-1.732 3.098-1.732 5.19m8.218-4.588c.442 1.167.626 2.696.626 4.548 0 4.265-.81 6.358-2.395 6.358q-1.215 0-1.88-1.811c-.442-1.207-.626-2.737-.626-4.547 0-4.226.81-6.318 2.395-6.318.811-.04 1.437.563 1.88 1.77m31.138 9.779C53.58 19.316 55.128 20 56.97 20c1.143 0 2.138-.241 3.022-.765.884-.482 1.585-1.086 2.064-1.81l-.369-.483c-.81.684-1.732 1.006-2.8 1.006-1.475 0-2.617-.524-3.39-1.61-.812-1.087-1.18-2.455-1.106-4.225h7.886c0-1.932-.443-3.501-1.364-4.749q-1.38-1.81-3.87-1.81c-2.063 0-3.647.724-4.79 2.132-1.142 1.409-1.695 3.139-1.695 5.191 0 2.093.59 3.783 1.806 5.11m2.727-10.1c.405-.966.921-1.45 1.621-1.45 1.106 0 1.658 1.53 1.658 4.628l-3.906.08c.037-1.206.221-2.293.627-3.259m17.098-1.61c-.995-.483-2.248-.765-3.758-.765-1.548 0-2.764.443-3.685 1.288s-1.4 1.891-1.4 3.139c0 1.086.294 1.931.847 2.535s1.437 1.127 2.58 1.57c1.031.402 1.768.804 2.137 1.166.368.403.59.845.59 1.449 0 .563-.185 1.087-.59 1.489-.369.442-.885.644-1.548.644-1.621 0-2.837-1.288-3.685-3.863l-.626.2.147 4.025q1.99.845 4.422.845c1.695 0 2.985-.402 3.943-1.247C72.52 17.948 73 16.78 73 15.332c0-.966-.221-1.77-.7-2.374-.48-.604-1.253-1.127-2.359-1.61-1.216-.483-2.063-.926-2.505-1.328-.443-.402-.664-.885-.664-1.489 0-.603.148-1.086.48-1.489.331-.402.736-.563 1.252-.563 1.474 0 2.543 1.167 3.206 3.46l.627-.2zm-35.45-.363c-.515-.281-1.068-.402-1.695-.402-.626 0-1.252.282-1.953.845-.7.564-1.216 1.328-1.621 2.374l.037-3.219-5.601 1.207v.564l.552.04c.7.08 1.106.684 1.18 1.77q.33 3.744 0 7.968c-.074 1.087-.48 1.65-1.18 1.771l-.552.08v.765h7.812v-.765l-.995-.08c-.7-.08-1.106-.684-1.18-1.77a45 45 0 0 1-.073-7.405q.332-.604 1.437-.724c.737-.08 1.585.16 2.47.724z"/></svg>
